liquidity/ui/public/pools.svg

<svg width="279" height="179" viewBox="0 0 279 179" fill="none" xmlns="http://www.w3.org/2000/svg">
<path d="M142.843 94.7949L186.675 120.247L186.653 124.3L142.7 149.859L135.706 149.851L91.8678 124.394L91.8721 120.35L135.863 94.8038L142.843 94.7949Z" fill="#6B59FF"/>
<rect width="44.3767" height="44.3767" transform="matrix(0.864779 0.502153 -0.864779 0.502153 139.215 103.506)" fill="#00D1FF"/>
<path d="M104.933 128.164L139.242 108.227L139.242 112.942L108.998 130.528L104.933 128.164Z" fill="#008EAD"/>
<path d="M139.215 108.246L173.533 128.164L169.458 130.512L139.215 112.964L139.215 108.246Z" fill="#008EAD"/>
<path d="M100.837 125.792L139.215 103.507L139.215 105.983L102.976 127.037L100.837 125.792Z" fill="#2D1EA6"/>
<path d="M139.215 103.506L177.588 125.789L175.469 127.038L139.215 105.986L139.215 103.506Z" fill="#402FC8"/>
<path d="M102.812 126.928L139.218 105.769L139.218 108.245L104.923 128.171L102.812 126.928Z" fill="#2D1EA6"/>
<path d="M139.215 105.769L175.661 126.913L173.51 128.163L139.215 108.249L139.215 105.769Z" fill="#402FC8"/>
<mask id="path-9-inside-1_12963_24046" fill="white">
<path d="M91.6638 123.871L135.846 149.526L135.846 172.675L91.6638 147.02L91.6638 123.871Z"/>
</mask>
<path d="M91.6638 123.871L135.846 149.526L135.846 172.675L91.6638 147.02L91.6638 123.871Z" fill="#402FC8"/>
<path d="M135.414 149.275L135.414 172.424L136.279 172.927L136.279 149.777L135.414 149.275Z" fill="#AEA4FF" mask="url(#path-9-inside-1_12963_24046)"/>
<mask id="path-11-inside-2_12963_24046" fill="white">
<path d="M142.859 149.561L187.041 123.906L187.041 147.052L142.859 172.708L142.859 149.561Z"/>
</mask>
<path d="M142.859 149.561L187.041 123.906L187.041 147.052L142.859 172.708L142.859 149.561Z" fill="#2D1EA6"/>
<path d="M143.291 172.457L143.291 149.31L142.426 149.812L142.426 172.959L143.291 172.457Z" fill="#AEA4FF" mask="url(#path-11-inside-2_12963_24046)"/>
<mask id="path-13-inside-3_12963_24046" fill="white">
<path d="M135.842 149.452H142.867V172.675H135.842V149.452Z"/>
</mask>
<path d="M135.842 149.452H142.867V172.675H135.842V149.452Z" fill="#2D1EA6"/>
<path d="M135.842 149.452V148.952H135.342V149.452H135.842ZM142.867 149.452H143.367V148.952H142.867V149.452ZM135.842 149.952H142.867V148.952H135.842V149.952ZM142.367 149.452V172.675H143.367V149.452H142.367ZM136.342 172.675V149.452H135.342V172.675H136.342Z" fill="#AEA4FF" mask="url(#path-13-inside-3_12963_24046)"/>
<path d="M91.6682 123.839L135.853 149.507H142.857L187.047 123.838" stroke="#AEA4FF"/>
<path d="M100.848 40H177.59V123.16C177.59 126.172 173.679 127.966 170.902 129.643L139.212 148.049L107.495 129.659C103.965 127.577 100.835 126.172 100.835 123.16V40H100.848Z" fill="url(#paint0_linear_12963_24046)"/>
<path d="M168.203 40H110.447V125.684H168.203V40Z" fill="url(#paint1_linear_12963_24046)"/>
<circle cx="22.9771" cy="22.9771" r="22.9771" transform="matrix(0.866025 0.5 -2.20305e-08 1 120.578 13)" fill="#06061B"/>
<circle cx="22.9771" cy="22.9771" r="22.9771" transform="matrix(0.866025 0.5 -2.20305e-08 1 118.58 14.1619)" fill="#06061B"/>
<circle cx="23.1357" cy="23.1357" r="23.1357" transform="matrix(0.866025 0.5 -2.20305e-08 1 118.5 14.3032)" fill="white"/>
<g clip-path="url(#clip0_12963_24046)">
<path d="M138.501 72.1222C149.586 78.5221 158.572 73.3521 158.572 60.5746C158.572 47.7971 149.586 32.2508 138.501 25.8509C127.984 19.7791 119.357 24.1214 118.5 35.4941L145.029 50.8108L145.029 54.7003L118.5 39.3836C119.357 51.7458 127.984 66.0504 138.501 72.1222Z" fill="#0052FF"/>
</g>
<defs>
<linearGradient id="paint0_linear_12963_24046" x1="139.212" y1="40" x2="139.212" y2="128.622" gradientUnits="userSpaceOnUse">
<stop stop-color="#2EDAFF" stop-opacity="0"/>
<stop offset="1" stop-color="#2EDAFF" stop-opacity="0.2"/>
</linearGradient>
<linearGradient id="paint1_linear_12963_24046" x1="139.325" y1="40" x2="139.325" y2="125.684" gradientUnits="userSpaceOnUse">
<stop stop-color="#2EDAFF" stop-opacity="0"/>
<stop offset="0.864583" stop-color="#2EDAFF" stop-opacity="0.2"/>
<stop offset="1" stop-color="#2EDAFF" stop-opacity="0"/>
</linearGradient>
<clipPath id="clip0_12963_24046">
<rect width="46.2714" height="46.2714" fill="white" transform="matrix(0.866025 0.5 -2.20305e-08 1 118.5 14.3032)"/>
</clipPath>
</defs>
</svg>

<svg width="279" height="179" fill="none" viewBox="0 0 279 179" xmlns="http://www.w3.org/2000/svg">
  <path fill="#6B59FF" d="m142.843 94.795 43.832 25.452-.022 4.053-43.953 25.559-6.994-.008-43.838-25.457.004-4.044 43.991-25.546z"/>
  <path fill="#00D1FF" d="m139.215 103.506 38.376 22.284-38.376 22.284-38.376-22.284z"/>
  <path fill="#008EAD" d="m104.933 128.164 34.309-19.937v4.715l-30.244 17.586z"/>
  <path fill="#008EAD" d="m139.215 108.246 34.318 19.918-4.075 2.348-30.243-17.548z"/>
  <path fill="#2D1EA6" d="m100.837 125.792 38.378-22.285v2.476l-36.239 21.054z"/>
  <path fill="#402FC8" d="m139.215 103.506 38.373 22.283-2.119 1.249-36.254-21.052z"/>
  <path fill="#2D1EA6" d="m102.812 126.928 36.406-21.159v2.476l-34.295 19.926z"/>
  <path fill="#402FC8" d="m139.215 105.769 36.446 21.144-2.151 1.25-34.295-19.914z"/>
  <mask id="a" fill="#fff">
    <path d="m91.664 123.871 44.182 25.655v23.149L91.664 147.02z"/>
  </mask>
  <path fill="#402FC8" d="m91.664 123.871 44.182 25.655v23.149L91.664 147.02z"/>
  <path fill="#AEA4FF" d="M135.414 149.275v23.149l.865.503v-23.15z" mask="url(#a)"/>
  <mask id="b" fill="#fff">
    <path d="m142.859 149.561 44.182-25.655v23.146l-44.182 25.656z"/>
  </mask>
  <path fill="#2D1EA6" d="m142.859 149.561 44.182-25.655v23.146l-44.182 25.656z"/>
  <path fill="#AEA4FF" d="M143.291 172.457V149.31l-.865.502v23.147z" mask="url(#b)"/>
  <mask id="c" fill="#fff">
    <path d="M135.842 149.452h7.025v23.223h-7.025z"/>
  </mask>
  <path fill="#2D1EA6" d="M135.842 149.452h7.025v23.223h-7.025z"/>
  <path fill="#AEA4FF" d="M135.842 149.452v-.5h-.5v.5zm7.025 0h.5v-.5h-.5zm-7.025.5h7.025v-1h-7.025zm6.525-.5v23.223h1v-23.223zm-6.025 23.223v-23.223h-1v23.223z" mask="url(#c)"/>
  <path stroke="#AEA4FF" d="m91.668 123.839 44.185 25.668h7.004l44.19-25.669"/>
  <path fill="url(#d)" d="M100.848 40h76.742v83.16c0 3.012-3.911 4.806-6.688 6.483l-31.69 18.406-31.717-18.39c-3.53-2.082-6.66-3.487-6.66-6.499V40z"/>
  <path fill="url(#e)" d="M168.203 40h-57.756v85.684h57.756z"/>
  <circle cx="22.977" cy="22.977" r="22.977" fill="#06061B" transform="matrix(.86603 .5 0 1 120.578 13)"/>
  <circle cx="22.977" cy="22.977" r="22.977" fill="#06061B" transform="matrix(.86603 .5 0 1 118.58 14.162)"/>
  <circle cx="23.136" cy="23.136" r="23.136" fill="#fff" transform="matrix(.86603 .5 0 1 118.5 14.303)"/>
  <g clip-path="url(#f)">
    <path fill="#0052FF" d="M138.501 72.122c11.085 6.4 20.071 1.23 20.071-11.547s-8.986-28.324-20.071-34.724c-10.517-6.072-19.144-1.73-20.001 9.643l26.529 15.317v3.89L118.5 39.383c.857 12.362 9.484 26.666 20.001 32.738"/>
  </g>
  <defs>
    <linearGradient id="d" x1="139.212" x2="139.212" y1="40" y2="128.622" gradientUnits="userSpaceOnUse">
      <stop stop-color="#2EDAFF" stop-opacity="0"/>
      <stop offset="1" stop-color="#2EDAFF" stop-opacity=".2"/>
    </linearGradient>
    <linearGradient id="e" x1="139.325" x2="139.325" y1="40" y2="125.684" gradientUnits="userSpaceOnUse">
      <stop stop-color="#2EDAFF" stop-opacity="0"/>
      <stop offset=".865" stop-color="#2EDAFF" stop-opacity=".2"/>
      <stop offset="1" stop-color="#2EDAFF" stop-opacity="0"/>
    </linearGradient>
    <clipPath id="f">
      <path fill="#fff" d="m118.5 14.303 40.072 23.136v46.27L118.5 60.575z"/>
    </clipPath>
  </defs>
</svg>
